!!!ONB: MCCC : IGF0063_03 : Extracted Monophonic Melody
!!!COM: Fauré, Gabriel
!!!OPR: Trois Nocturnes
!!!OMV: 3
!!!SCT: Op.33
!!!ODT: 1875///
**kern
*staff1
*clefG2
*k[b-e-a-d-]
*A-:
*M3/4
4e-
=2
[4cc
8cc]
8dd-
16cc
[16a-
16a-]
16b-
=3
[4cc
8cc]
8ff
16ee-
16dd
16dd
16ee-
=4
8cc-
8cc
4gg
16gg
16gg-
16gg-
16ff
=5
16ee-
8.cc
4f
8r
8b-
=6
[4cc
8cc]
8dd-
16cc
[16a-
16a-]
16b-
=7
[4cc
8cc]
8ff
16ee-
16dd
16dd
16ee-
=8
8cc-
8cc
4ccc[
12ccc]
12bb
12ccc
=9
12gg
12aa-
12ff
12ee-
12cc
12a-
12e
12g
12f
=10
8ee-
8e-
4b-
4r
=11
8r
16cc
16gg
12cc
12dd-
12ee-
8gg
8cc
=12
8gg
8bb-
12aa-
12gg-
12ee
12dd-
12cc-
12a-
=13
12a
12cc-
12dd-
12cc-
12a
12g-
12e-
12c-
12d-
=14
8e-
8e-
4b-
4r
=15
8r
16cc
16gg
12cc
12dd-
12ee-
8gg
8cc
=16
12gg
12aa-
12bb-
12aa-
12gg-
12ee
12dd-
12cc-
12a-
=17
12a
12cc-
12dd-
12cc-
12a-
12a
12g-
12e-
12d-
=18
4c-
6d-
12d-
12e-
12e
12d#
=19
4e
8r
8f#
12g
12a
12g
=20
[12a
12a_
12a]
12cc-[
12cc-]
12cc-
12cc
12dd
12cc
=21
12dd
12dd[
12dd]
12ee[
12ee]
12ee
12gg-
12aa-
12gg-
=22
12aa-
12aa-[
12aa-]
12bb-
12ccc
12bb-
12ccc
12ddd-
12ccc
=23
12ddd-
12ee-
12ff
12eee-
12fff
12eee-
12fff
12ggg
12fff
=24
4.ggg
8aaa-
8ggg
8aaa-
=25
2.bbb-
=26
2.aaa-[
=27
4aaa-]
4r
4r
=28
12r
12cc
12aa-
12ee-
12ccc
12aa-
12ee-
12cc
12aa-
=29
12r
12cc
12aa-
12ee-
12ccc
12aa-
12ee-
12cc
12aa-
=30
12r
12cc
12aa-
12ee
12ccc
12aa-
12ee
12cc
12aa-
=31
12r
12cc-
12aa-
12dd
12ccc-
12aa-
12dd
12cc-
12aa-
=32
12r
12a-
12dd
12cc-
12aa-
12dd
12cc-
12a-
12dd
=33
12r
12g-
12ee-
12a
12gg-
12ee-
12a
12g
12ee-
=34
12r
12e
12dd-
12a
12ee
12dd-
12a
12e
12dd-
=35
12r
12e-
12g
12e-
12dd-
12g
12d-
12g
12e-
=36
12d-
[12a-
12a-]
[12dd-
12dd-_
12dd-]
12a-
12cc
12ee-
=37
4.gg
8aa-
8gg
8aa-
=38
2bb-
4aa-
=39
4.ee
8ff
8ee
8ff
=40
4.gg[
8gg]
4ff
=41
4.cc
8dd-
8cc
8dd-
=42
2ee-
4dd-
=43
4.dd-
8dd-
8cc
8b-
=44
2g
4a-
=45
12r
12ee-
12b-
12ee-
12gg
12bb-
12gg
12ee-
12b-
=46
12r
12dd-
12a-
12dd-
12ff
12aa-
12ff
12dd-
12a-
=47
12r
12cc-
12g-
12cc-
12ee-
12gg-
12ee-
12cc-
12g-
=48
12r
12a
12e
12a
12dd-
12ee
12dd-
12a
12e
=49
12r
12g
12d
12g
12cc-
12dd
12cc-
12g
12d
=50
12r
12g-
12e-
12g-
12cc
12ee-
12cc
12g-
12e-
=51
12r
12a-
12e
12a-
12dd
12ee
12dd
12a-
12e
=52
12r
12cc-
12f
12cc-
12dd
12ff
12dd
12cc-
12f
=53
12r
12cc-
12g-
12cc-
12dd
12gg-
12dd
12cc-
12dd
=54
12r
12dd
12cc-
12dd
12gg
12ccc-
12gg
12dd
12cc-
=55
12r
12dd-
12b-
12dd-
12ee
12bb-
12ee
12dd-
12b-
=56
12r
12dd
12cc-
12dd
12gg
12ccc-
12gg
12dd
12cc-
=57
4r
4r
8ggg-
8ggg
=58
4.ggg
8aaa-
8ggg
8aaa-
=59
2bbb-
4aaa-
=60
4.eee
8fff
8eee
8fff
=61
2ggg
4fff
=62
4.ccc
8ddd-
8ccc
8ddd-
=63
2eee-
4ddd-
=64
4.ddd-
8ddd-
8ccc
8bb-
=65
4.dd-
8dd-
8cc-
8b-
=66
4.ddd-
8ddd-
8ccc
8bb-
=67
4.dd-
8dd-
8cc-
8b-
=68
4.ddd-
8ddd-
8ccc
8bb-
=69
[4cc
8cc]
8dd-
16cc
[16a-
16a-]
16b-
=70
[4cc
8cc]
8ff
16ee-
16dd
16dd
16ee-
=71
8cc-
8cc
4gg
16gg
16gg-
16gg-
16ff
=72
16ee-
8.cc
4f
8r
8b-
=73
[4cc
8cc]
8dd-
16cc
[16a-
16a-]
16b-
=74
[4cc
8cc]
8ff
16ee-
16dd
16dd
16ee-
=75
8cc-
8cc
4ccc[
12ccc]
12bb
12ccc
=76
16gg
16aa-[
8aa-]
16ee-
[16cc
8cc]
16e
16g
16g
16f
=77
16.ee-[
32ee-]
8ff
12b-
12dd-
12ee-
8ff
8b-
=78
16.ff[
32ff]
8gg
12cc
12ee-
12ff
8gg
8cc
=79
8gg
8bb-
12aa-
12gg-
12ee
12dd-
12cc-
12a-
=80
12a
12cc-
12dd-
12cc-
12a
12g-
12e-
12c-
12d-
=81
8e-
8e-
4b-
4r
=82
8r
16cc
16gg
12cc
12dd-
12ee-
8gg
8cc
=83
12gg
12aa-
12bb-
12aa-
12gg-
12ee
12dd-
12cc-
12a-
=84
12a
12cc-
12dd-
12cc-
12a-
12a
12g-
12e-
12d-
=85
4c-
6d-
12d-
12e-
12e
12d#
=86
4e
8r
8f#
12g
12a
12g
=87
[12a
12a_
12a]
12cc-[
12cc-]
12cc-
12cc
12dd
12cc
=88
12dd
12dd[
12dd]
12ee[
12ee]
12ee
12gg-
12aa-
12gg-
=89
12aa-
12aa-[
12aa-]
12bb-
12ccc
12bb-
12ccc
12ddd-
12ccc
=90
12ddd-
12ee-
12ff
12eee-
12fff
12eee-
12fff
12ggg
12fff
=91
4.ggg
8aaa-
8ggg
8aaa-
=92
2bbb-
4aaa-
=93
8r
8bb-
12ee-
12gg-
12aa-
8bb-
8ee-
=94
8bb-
8ccc
12ff
12aa-
12bb-
8ccc
8ff
=95
8ccc
8ddd-
12dd-
12ee
12gg-
12aa-
12gg-
12ee
=96
2.ee-
=97
8aa-
8bb-
12ee-
12gg-
12aa-
8bb-
8ee-
=98
8bb-
8ccc
12ff
12aa-
12bb-
8ccc
8ff
=99
8ccc-
8ddd
12dd
12ee
12gg-
12aa-
12gg-
12ee
=100
2ee-[
4ee-]
=101
12ee-
12b-
12g
16a-
16b-
16cc
16dd-
16dd
16ee-
16ff
16gg
=102
16aa-
16bb-
16gg
16aa-
16bb-
16ccc
16ddd-
16eee-
16fff
16ggg
16aaa-
16bbb-
=103
2.cccc
=104
2cccc[
4cccc]
=105
2ccc
4ccc
=106
4.ccc
8ccc
8ccc
8ccc
=107
2ccc[
4ccc]
=108
2.ccc
=109
12a-
12ee-
12cc
12aa-
12ee-
12ccc
12aa-
12eee-
12ccc
=110
4aaa-
4r
4r
=111
8e-
8a-
2cc
==
*-
